src/WeatherTwentyOne/Resources/Images/tab_home.svg

<svg width="28" height="31" viewBox="0 0 28 31" fill="none" xmlns="http://www.w3.org/2000/svg">
<g clip-path="url(#clip0)">
<g clip-path="url(#clip1)">
<path d="M11.5388 0.677031C12.0723 0.239229 12.7405 0 13.4301 0C14.1197 0 14.7879 0.239229 15.3214 0.677031L25.7297 9.17988C26.0839 9.47081 26.369 9.837 26.5645 10.2519C26.7601 10.6669 26.861 11.1202 26.8602 11.5791V27.0024C26.8602 28.7019 25.5077 30.0792 23.8384 30.0792H19.8094C18.1401 30.0792 16.7876 28.7019 16.7876 27.0024V19.5912C16.7876 19.0252 16.3373 18.5661 15.7804 18.5661H11.0798C10.5237 18.5661 10.0726 19.0252 10.0726 19.5912V27.0032C10.0726 28.7027 8.72009 30.08 7.0508 30.08H3.02178C1.35328 30.0792 5.40114e-06 28.7019 5.40114e-06 27.0024V11.5791C-0.000850966 11.1202 0.100138 10.6669 0.29566 10.2519C0.491182 9.837 0.776344 9.47081 1.1305 9.17988L11.5388 0.677031ZM14.0605 2.27676C13.8827 2.13092 13.6599 2.05123 13.4301 2.05123C13.2003 2.05123 12.9775 2.13092 12.7997 2.27676L2.39135 10.7788C2.27326 10.8759 2.17818 10.998 2.11301 11.1364C2.04783 11.2748 2.01419 11.426 2.01452 11.5791V27.0024C2.01452 27.5692 2.46482 28.0283 3.02178 28.0283H7.0508C7.60697 28.0283 8.05806 27.5692 8.05806 27.0024V19.5912C8.05806 17.8925 9.41134 16.5152 11.0798 16.5152H15.7804C17.4489 16.5152 18.8021 17.8925 18.8021 19.5912V27.0032C18.8021 27.57 19.2524 28.0291 19.8094 28.0291H23.8384C24.3946 28.0291 24.8457 27.57 24.8457 27.0032V11.5791C24.8457 11.268 24.7074 10.9735 24.4688 10.7796L14.0605 2.27597V2.27676Z" fill="#91A7B7"/>
</g>
</g>
<defs>
<clipPath id="clip0">
<rect width="27.0191" height="30.08" fill="white"/>
</clipPath>
<clipPath id="clip1">
<rect width="27.0191" height="30.08" fill="white"/>
</clipPath>
</defs>
</svg>

<svg width="28" height="31" fill="none" xmlns="http://www.w3.org/2000/svg">
    <g clip-path="url(#prefix__clip0)">
        <g clip-path="url(#prefix__clip1)">
            <path
                d="M11.539.677a2.981 2.981 0 013.782 0L25.73 9.18a3.094 3.094 0 011.13 2.4v15.422c0 1.7-1.352 3.077-3.022 3.077H19.81c-1.669 0-3.021-1.377-3.021-3.077v-7.41c0-.567-.45-1.026-1.008-1.026h-4.7c-.556 0-1.007.46-1.007 1.025v7.412c0 1.7-1.353 3.077-3.022 3.077H3.02C1.354 30.08 0 28.702 0 27.002V11.58a3.1 3.1 0 011.13-2.4L11.54.678zm2.521 1.6a.994.994 0 00-1.26 0L2.39 10.779a1.032 1.032 0 00-.376.8v15.423c0 .567.45 1.026 1.007 1.026H7.05c.556 0 1.007-.459 1.007-1.026v-7.41c0-1.7 1.353-3.077 3.022-3.077h4.7c1.669 0 3.022 1.377 3.022 3.076v7.412c0 .567.45 1.026 1.007 1.026h4.03c.556 0 1.007-.459 1.007-1.026V11.58a1.03 1.03 0 00-.377-.8L14.06 2.277z"
                fill="#91A7B7" />
        </g>
    </g>
    <defs>
        <clipPath id="prefix__clip0">
            <path fill="#fff" d="M0 0h27.019v30.08H0z" />
        </clipPath>
        <clipPath id="prefix__clip1">
            <path fill="#fff" d="M0 0h27.019v30.08H0z" />
        </clipPath>
    </defs>
</svg>
